!!!OTL: Todtenamt. / Purengesang des 14. Jahrhunderts./
!!!ARE: Europa, Mitteleuropa, Deutschland
!!!SCT: A0018
!!!TXL: @@GMH
!!!YEM: Copyright 1995, estate of Helmut Schaffrath.
**kern	**text
*M4/2	*
*k[]	*
*met(c|)	*
*d:dor	*
!LO:TX:a:t=dor.	!
{2d	Es
=1	=1
2d	tagt
2d	in
2.d	Oe-
4g	-ſter-
=2	=2
1a	-ri-
2.f}	-che,
{4e	die
=3	=3
2d	ſunn
2g	ſcheint
(4a	ü-
4g	.
4f)	.
4e	-ber-
=4	=4
1f	-al,
2r}	.
{2e	ſo
=5	=5
2g	waiſt
2a	mein
(4g	wun-
4f)	.
(4e	-der-
4d)	.
=6	=6
1g	-ſchön
2a}	lieb,
{(4f	wa
4e)	.
=7	=7
(>4d	es
4c#)	.
2d	mich
(4f	fü-
4e	.
4d)	.
4c#X	-ren
=8	=8
1d	ſal.
2r}	.
==	==
!!!GTL: Balladen und Romanzen (erzählende Volkslieder)
!!!AGN: Romanze, Ballade, Lied
!! Melodie: Hs. des 15.Jahrh. aus Karlsruhe
!!!ONB: ESAC (Essen Associative Code) Database: ALTDEU
!!!AMT: simple quadruple
!!!AIN: vox
!!!EED: Helmut Schaffrath
!!!EEV: 1.0
!!!RDF**kern: > = above
!!!AMD: Dorian
!!@@COMMENT: "Text und Melodie mit der Ueberfchrift „Purengesang" (Bauerngesang) aus einer Handschrift des 15. Jahrh. zu Karlsruhe, 
!! in der überlieferten Schreibung mitgetheilt von Mone, Anzeiger zur Kunde der tauschen Vorzeit. 4. Jahrg. Sp, 455.
!! Die Melodie folgt erst im 6. Jahrh. Beil. 2 No. 6. Eine moderne Uebertragung des Textes bei Vilmar, Volkslieder S. 114. — Hs, hat Oesterriche"
!!END:
!!!URL-scan: https://rosdok.uni-rostock.de/mcrviewer/recordIdentifier/rosdok_ppn738218359/iview2/phys_0144.iview2?x=-955.4044398057085&y=1298.1296896894928&scale=0.35505986316989735&rotation=0&layout=singlePageLayout&logicalDiv=log_0007
!!!ENC: Anna Maria Matuszewska
!!!EEV: 2024/16/02
*-	*-
